images/footer/Product.svg

<svg width="32" height="30" viewBox="0 0 32 30" fill="none" xmlns="http://www.w3.org/2000/svg">
<path fill-rule="evenodd" clip-rule="evenodd" d="M2.50646 27.5668C1.12791 27.5668 1.28656e-07 26.4389 1.19284e-07 25.0603L5.97072e-08 16.2974L6.30899 16.2974L6.30899 16.2877L10.101 16.2877C11.0785 16.2627 11.9057 15.4105 11.9057 14.4079C11.9057 13.3802 11.0535 12.5281 10.0258 12.5281L5.01292 12.5281L5.01292 12.5295L3.40912e-08 12.5295L1.70405e-08 10.0216C7.66823e-09 8.64304 1.12791 7.51514 2.50646 7.51514L10.0258 7.51514C11.9307 7.51514 13.5599 8.19188 14.8884 9.54537C16.2418 10.8738 16.9186 12.503 16.9186 14.4079C16.9186 16.2877 16.2669 17.9169 14.9385 19.2454C13.6101 20.5738 12.0059 21.2756 10.1261 21.3007L5.01292 21.3007L5.01292 25.0603C5.01292 26.4389 3.88501 27.5668 2.50646 27.5668Z" fill="#02BC6B"/>
<path fill-rule="evenodd" clip-rule="evenodd" d="M20.0779 4.60645C22.8471 7.29616 24.2425 10.646 24.2425 14.454C24.2425 18.198 22.9055 21.5448 20.1791 24.2429L16.3081 20.6008C18.0037 18.9228 18.836 16.9026 18.836 14.454C18.836 11.9868 17.9787 9.96969 16.2424 8.28327L20.0779 4.60645Z" fill="#02897A"/>
<path fill-rule="evenodd" clip-rule="evenodd" d="M26.0044 -2.51649e-08C29.9929 3.98225 32 8.91996 32 14.587C32 20.1656 30.0738 25.1003 26.1508 29.091L22.415 25.4408C25.3372 22.468 26.7691 18.8625 26.7691 14.587C26.7691 10.2687 25.2889 6.66621 22.303 3.68493L26.0044 -2.51649e-08Z" fill="#035B81"/>
<path fill-rule="evenodd" clip-rule="evenodd" d="M0 21.3218L5.01292 21.3218L5.01292 25.0606C5.01292 26.4392 3.88501 27.5671 2.50646 27.5671C1.12791 27.5671 3.47914e-08 26.4392 2.54191e-08 25.0606L0 21.3218Z" fill="#028E37"/>
</svg>

<svg width="32" height="30" fill="none" xmlns="http://www.w3.org/2000/svg"><path fill-rule="evenodd" clip-rule="evenodd" d="M2.506 27.567A2.514 2.514 0 0 1 0 25.06v-8.763h6.309v-.01h3.792c.977-.024 1.805-.876 1.805-1.88 0-1.027-.853-1.879-1.88-1.879H5.013v.002H0v-2.508a2.514 2.514 0 0 1 2.506-2.507h7.52c1.905 0 3.534.677 4.862 2.03 1.354 1.329 2.03 2.958 2.03 4.863 0 1.88-.651 3.509-1.98 4.837-1.328 1.329-2.932 2.03-4.812 2.056H5.013v3.76a2.514 2.514 0 0 1-2.507 2.506Z" fill="#02BC6B"/><path fill-rule="evenodd" clip-rule="evenodd" d="M20.078 4.606c2.77 2.69 4.165 6.04 4.165 9.848 0 3.744-1.337 7.09-4.064 9.789L16.31 20.6c1.695-1.678 2.527-3.698 2.527-6.147 0-2.467-.857-4.484-2.594-6.17l3.836-3.678Z" fill="#02897A"/><path fill-rule="evenodd" clip-rule="evenodd" d="M26.004 0C29.993 3.982 32 8.92 32 14.587c0 5.579-1.926 10.513-5.85 14.504l-3.735-3.65c2.922-2.973 4.354-6.578 4.354-10.854 0-4.318-1.48-7.92-4.466-10.902L26.004 0Z" fill="#035B81"/><path fill-rule="evenodd" clip-rule="evenodd" d="M0 21.322h5.013v3.739a2.514 2.514 0 0 1-2.507 2.506A2.514 2.514 0 0 1 0 25.061v-3.74Z" fill="#028E37"/></svg>
